resources/haticons/SVG/rss2.svg

<!-- Generated by IcoMoon.io -->
<svg version="1.1" xmlns="http://www.w3.org/2000/svg" width="24" height="24" viewBox="0 0 24 24">
<title>rss2</title>
<path d="M21.75 0h-19.5c-1.237 0-2.25 1.013-2.25 2.25v19.5c0 1.237 1.013 2.25 2.25 2.25h19.5c1.237 0 2.25-1.013 2.25-2.25v-19.5c0-1.237-1.013-2.25-2.25-2.25zM6.539 19.481c-1.125 0-2.039-0.905-2.039-2.030 0-1.116 0.914-2.034 2.039-2.034 1.13 0 2.039 0.919 2.039 2.034 0 1.125-0.914 2.030-2.039 2.030zM11.658 19.5c0-1.917-0.745-3.722-2.095-5.072-1.355-1.355-3.15-2.1-5.063-2.1v-2.934c5.569 0 10.106 4.533 10.106 10.106h-2.948zM16.866 19.5c0-6.82-5.545-12.375-12.361-12.375v-2.934c8.438 0 15.305 6.872 15.305 15.309h-2.944z"></path>
</svg>

<svg xmlns="http://www.w3.org/2000/svg" width="24" height="24"><path d="M21.75 0H2.25A2.257 2.257 0 0 0 0 2.25v19.5A2.257 2.257 0 0 0 2.25 24h19.5A2.257 2.257 0 0 0 24 21.75V2.25A2.257 2.257 0 0 0 21.75 0zM6.539 19.481a2.033 2.033 0 0 1-2.039-2.03 2.04 2.04 0 0 1 4.078 0c0 1.125-.914 2.03-2.039 2.03zm5.119.019a7.13 7.13 0 0 0-2.095-5.072 7.109 7.109 0 0 0-5.063-2.1V9.394c5.569 0 10.106 4.533 10.106 10.106h-2.948zm5.208 0c0-6.82-5.545-12.375-12.361-12.375V4.191c8.438 0 15.305 6.872 15.305 15.309h-2.944z"/></svg>
